src/assets/icons/reject.svg

<svg width="24" height="24" viewBox="0 0 24 24" fill="none" xmlns="http://www.w3.org/2000/svg">
<rect x="2" y="2" width="20" height="20" rx="2" fill="#D65656"/>
<path d="M17.5832 16.4165C17.9165 16.7498 17.9165 17.2498 17.5832 17.5832C17.4165 17.7498 17.2498 17.8332 16.9998 17.8332C16.7498 17.8332 16.5832 17.7498 16.4165 17.5832L11.9998 13.1665L7.58317 17.5832C7.4165 17.7498 7.24984 17.8332 6.99984 17.8332C6.74984 17.8332 6.58317 17.7498 6.4165 17.5832C6.08317 17.2498 6.08317 16.7498 6.4165 16.4165L10.8332 11.9998L6.4165 7.58317C6.08317 7.24984 6.08317 6.74984 6.4165 6.4165C6.74984 6.08317 7.24984 6.08317 7.58317 6.4165L11.9998 10.8332L16.4165 6.4165C16.7498 6.08317 17.2498 6.08317 17.5832 6.4165C17.9165 6.74984 17.9165 7.24984 17.5832 7.58317L13.1665 11.9998L17.5832 16.4165Z" fill="white"/>
</svg>

<svg xmlns="http://www.w3.org/2000/svg" width="24" height="24" fill="none" viewBox="0 0 24 24">
  <rect width="20" height="20" x="2" y="2" fill="#D65656" rx="2"/>
  <path fill="#fff" d="M17.583 16.416a.806.806 0 0 1 0 1.167.757.757 0 0 1-.583.25.757.757 0 0 1-.584-.25L12 13.167l-4.417 4.416a.757.757 0 0 1-.583.25.757.757 0 0 1-.583-.25.806.806 0 0 1 0-1.166L10.832 12 6.416 7.583a.806.806 0 0 1 0-1.167.806.806 0 0 1 1.167 0L12 10.834l4.416-4.417a.806.806 0 0 1 1.167 0 .806.806 0 0 1 0 1.167L13.167 12l4.416 4.416Z"/>
</svg>
